!!!COA:	Josquin des Prez
!!!CDT:	~1450-1521/08/27
!!!OTL:	Ecce video celos apertos
!!!AGN:	Motet
!!!SCT:	NJE 19.2
!!!SCA:	New Josquin Edition 19.2
!!!voices:	3
**kern	**kern	**kern
*staff3	*staff2	*staff1
*Ivox	*Ivox	*Ivox
*I"Contra	*I"Tenor	*I"Superius
*I'C	*I'T	*I'S
*clefF4	*clefGv2	*clefG2
*k[]	*k[]	*k[]
*M2/1	*M2/1	*M2/1
*met(C|)	*met(C|)	*met(C|)
=1-	=1-	=1-
0r	0r	1e/
.	.	1b\
=2	=2	=2
0r	1A/	1cc\
.	1e\	1b\
=3	=3	=3
0r	1f\	2a/
.	.	1cc\
.	2e\	.
.	2d\	2b\
=4	=4	=4
0r	1f\	2a/
.	.	2.cc\
.	2e\	.
.	.	4b\
.	[2d\	[2b\
=5	=5	=5
1AA/	4d\]	4b/]
.	4c\	4a/
.	4B\	4g#i/
.	4A\	4f#i/
1E\	1B\	1g#i/
=6	=6	=6
1F\	2A/	1a/
.	1c\	.
2E\	.	1r
2D\	2B\	.
=7	=7	=7
1F\	2A/	0r
.	2.c\	.
2E\	.	.
.	4B\	.
[2D\	[2B\	.
=8	=8	=8
4D/]	4B/]	0r
4C/	4A/	.
4BB/	4G#i/	.
4AA/	4F#i/	.
1BB/	1G#i/	.
=9	=9	=9
1AA/	1A/	1e/
1r	1r	1b\
=10	=10	=10
0r	1A/	1cc\
.	1e\	1b\
=11	=11	=11
1r	1f\	2a/
.	.	1cc\
1AA/	[1e\	.
.	.	4b/
.	.	4a/
=12	=12	=12
2E\	0e]	2g/
1A\	.	1cc\
[2G\	.	[2b\
=13	=13	=13
4G\]	0d	4b/]
4F\	.	4a/
4D\	.	2.dd\
4E\	.	.
1F\	.	.
.	.	4cc\
.	.	4b\
.	.	4a\
=14	=14	=14
[0E	1e\	2g/
.	.	2.b\
.	2B\	.
.	.	4a/
.	[2e\	2cc\
=15	=15	=15
0E]	4e\]	2b\
.	4d\	.
.	2.g\	2.ee\
.	4f\	4dd\
.	2e\	2cc\
=16	=16	=16
1r	2d\	2b\
.	2c\	1cc\
1G\	1d\	.
.	.	2b\
=17	=17	=17
1A\	1c\	1cc\
2F\	1d\	1r
[2G\	.	.
=18	=18	=18
2G\]	1e\	0r
2E\	.	.
1F\	2c\	.
.	[2d\	.
=19	=19	=19
0D	4d\]	0r
.	4c\	.
.	4B\	.
.	4A\	.
.	1B\	.
=20	=20	=20
1C/	1c\	2r
.	.	2cc\
1r	2r	2b\
.	2f\	2a/
=21	=21	=21
2r	2e\	2g/
2F\	2d\	2a/
2E\	2c\	2e/
2D\	2d\	2f/
=22	=22	=22
2C/	1A/	2e/
2D\	.	2r
1AA/	1r	2r
.	.	2cc\
=23	=23	=23
1r	2r	2b\
.	2f\	2a/
2r	2e\	2g/
2F\	2d\	2a/
=24	=24	=24
2E\	2c\	2e/
2D\	2d\	2f/
2C/	[1A/	2e/
2D\	.	[2f/
=25	=25	=25
2AA/	2A/]	4f/]
.	.	4e/
2C/	2G/	1e/
1D\	1F/	.
.	.	2d/
=26	=26	=26
2AA/	2E/	[0e
1A\	1c\	.
2G\	2B\	.
=27	=27	=27
1A\	1A/	0e_
2E\	2G/	.
[2A\	[2c\	.
=28	=28	=28
4A\]	4c\]	0e]
4G\	4B\	.
2A\	2A/	.
1E\	2G/	.
.	2c\	.
=29	=29	=29
2D\	2B\	1r
2C/	1A/	.
1BB/	.	1b\
.	2G#i/	.
=30	=30	=30
1AA/	2A/	2cc\
.	2.e\	2.cc\
2.A\	.	.
.	4d\	4b\
.	2e\	4cc\
4G\	.	4b\
=31	=31	=31
2A\	2c\	2cc\
2F\	2d\	2a/
2G\	2B\	1g/
2E\	[2e\	.
=32	=32	=32
2.A\	4e\]	2r
.	4d\	.
.	2e\	1e/
4G\	.	.
2A\	2c\	.
2F\	2d\	2f/
=33	=33	=33
2G\	2B\	2d/
2E\	2.e\	2g/
2.A\	.	2r
.	4d\	.
.	2e\	[2cc\
4G\	.	.
=34	=34	=34
2A\	2c\	4cc\]
.	.	4b\
2D\	2d\	1a/
1E\	1B\	.
.	.	2g#i/
=35	=35	=35
0AA	1A/	2.a/
.	.	8g/L
.	.	8f/J
.	2r	4e/
.	.	4d/
.	2A/	[2f/
=36	=36	=36
0r	1e\	4f/]
.	.	4e/
.	.	1e/
.	1f\	.
.	.	2d/
=37	=37	=37
0A	1e\	1e/
.	2.e\	2r
.	.	2e/
.	4f\	.
=38	=38	=38
0G	2.g\	2b\
.	.	2.b\
.	4d\	.
.	2.d\	.
.	.	4cc\
.	.	[2dd\
.	4e\	.
=39	=39	=39
0F	2.f\	4dd\]
.	.	4a\
.	.	2.a/
.	4c\	.
.	2.c\	.
.	.	4b\
.	.	[2cc\
.	4d\	.
=40	=40	=40
[0E	2e\	4cc/]
.	.	4g/
.	2B\	2.g/
.	1B\	.
.	.	4a/
.	.	2b\
=41	=41	=41
0E]	2r	2.e/
.	2.c\	.
.	.	4f/
.	.	4g/
.	4d\	4e/
.	2e\	[2g/
=42	=42	=42
0r	2c\	4g/]
.	.	4a/
.	2B\	4b/
.	.	4g/
.	1e\	2cc\
.	.	[2b\
=43	=43	=43
1AA/	2d\	4b/]
.	.	4a/
.	2c\	1a/
1E\	1B\	.
.	.	2g#i/
=44	=44	=44
1F\	1A/	1a/
2E\	2r	1r
2C/	2E/	.
=45	=45	=45
1D\	1B\	1r
1C/	1c\	1e/
=46	=46	=46
1r	2B\	1b\
.	2G/	.
1AA/	1A/	1cc\
=47	=47	=47
1E\	2G/	2b\
.	1B\	2g/
1F\	.	1a/
.	2A/	.
=48	=48	=48
1E\	1B\	2g/
.	.	1b\
2r	1c\	.
2AA/	.	2a/
=49	=49	=49
1E\	2B\	2b\
.	1e\	1cc\
1F\	.	.
.	2d\	4b/
.	.	4a/
=50	=50	=50
2E\	1e\	2g/
2AA/	.	2cc\
2E\	2r	2b\
2F\	2c\	2a/
=51	=51	=51
2G\	2B\	2g/
2D\	2A/	2a/
2E\	2G/	2e/
2F\	2A/	2d/
=52	=52	=52
2E\	2B\	2e/
2.A\	2.c\	2.f/
4E\	4B\	4e/
2G\	[2B\	[2e/
=53	=53	=53
1F\	2B\]	2e/]
.	2A/	2d/
[1E\	1B\	2e/
.	.	[2b\
=54	=54	=54
1E\]	1e\	2b\]
.	.	2g/
1r	2c\	2a/
.	2d\	2b\
=55	=55	=55
1r	2e\	2g/
.	2.A/	1cc\
2r	.	.
.	4B\	.
2AA/	2c\	2a/
=56	=56	=56
1E\	2B\	2b\
.	1e\	2cc\
1F\	.	1a/
.	2d\	.
=57	=57	=57
1E\	1e\	2g/
.	.	1cc\
[1F\	1c\	.
.	.	2a/
=58	=58	=58
0F]	2r	2cc\
.	2f\	2a/
.	2d\	2.dd\
.	2f\	.
.	.	4cc\
=59	=59	=59
[0G	2d\	2.b\
.	2.g\	.
.	.	4a/
.	.	2g/
.	4f\	.
.	2e\	[2cc\
=60	=60	=60
1G\]	1d\	2cc\]
.	.	2b\
1A\	2r	1cc\
.	[2c\	.
=61	=61	=61
1F\	2c\]	0r
.	2A/	.
2r	2c\	.
2F\	2A/	.
=62	=62	=62
2D\	2.d\	0r
2F\	.	.
.	4c\	.
2D\	2.B\	.
[2G\	.	.
.	4A/	.
=63	=63	=63
4G\]	2G/	1r
4F\	.	.
2E\	1c\	.
1D\	.	2r
.	2B\	2dd\
=64	=64	=64
1C/	1c\	1ee\
1r	2r	2cc\
.	2f\	[2dd\
=65	=65	=65
2r	1g\	2dd\]
2G\	.	2b\
1A\	2e\	1cc\
.	[2f\	.
=66	=66	=66
2F\	2f\]	2a/
1G\	2d\	2.b\
.	1e\	.
.	.	4g/
2E\	.	[2cc\
=67	=67	=67
1F\	2c\	4cc/]
.	.	4b/
.	1d\	4a/
.	.	4g/
2D\	.	2f/
[2E\	2B\	[2g/
=68	=68	=68
2E\]	2c\	4g/]
.	.	4e/
2C/	2A/	1a/
2D\	1B\	.
2E\	.	2g#i/
=69	=69	=69
1F\	1A/	1a/
1E\	2r	2r
.	2G/	2e/
=70	=70	=70
2r	2A/	2f/
1E\	2B\	1g/
.	1c\	.
2F\	.	4f/
.	.	4e/
=71	=71	=71
1.G\	2B\	1d/
.	2G/	.
.	1g\	2r
4F\	.	[2dd\
4E\	.	.
=72	=72	=72
2D\	2f\	2dd\]
2A\	2e\	2cc\
2.G\	1g\	2b\
.	.	[2dd\
4A\	.	.
=73	=73	=73
2B\	2f\	2dd\]
2c\	1e\	2cc\
1G\	.	1b\
.	2d\	.
=74	=74	=74
0r	2f\	2a/
.	2e\	2cc\
.	2d\	2b\
.	[2f\	2a/
=75	=75	=75
0r	2f\]	1cc\
.	2e\	.
.	2d\	2b\
.	[2c\	[2a/
=76	=76	=76
1r	4c/]	4a/]
.	4G/	4g/
.	2B\	1g/
1D\	2A/	.
.	2d\	2f/
=77	=77	=77
1E\	1B\	1g/
1r	1c\	1e/
=78	=78	=78
1E\	1r	2r
.	.	2g/
1F\	1c\	2a/
.	.	2cc\
=79	=79	=79
1r	1d\	2b\
.	.	2.dd\
1F\	1r	.
.	.	4cc\
.	.	2a/
=80	=80	=80
1G\	1d\	2b\
.	.	2dd\
1r	1e\	1cc\
=81	=81	=81
1G\	2d\	1b\
.	1e\	.
1A\	.	1r
.	4d\	.
.	4c\	.
=82	=82	=82
2G\	2B\	0r
1A\	2.c\	.
.	4A/	.
4G\	[2d\	.
4F\	.	.
=83	=83	=83
1E\	2d\]	1r
.	2c#i\	.
1D\	1d\	[1a/
=84	=84	=84
2r	2c\	0a]
2D\	2d\	.
2C/	2r	.
2D\	2d\	.
=85	=85	=85
2r	2c\	0a
2D\	1A/	.
2C/	.	.
2AA/	2c\	.
=86	=86	=86
1E\	1B\	1g/
1F\	1A/	2a/
.	.	[2a/
=87	=87	=87
1E\	2r	4a/]
.	.	4g/
.	1B\	2.g/
1r	.	.
.	.	4d/
.	2A/	2f/
=88	=88	=88
2r	1c\	2e/
2AA/	.	1a/
1E\	1B\	.
.	.	2g/
=89	=89	=89
2F\	2r	2a/
2E\	1B\	2g/
1F\	.	2r
.	2A/	[2cc\
=90	=90	=90
[0E	1c\	2cc\]
.	.	4b/
.	.	4a/
.	1B\	1g/
=91	=91	=91
0E]	1r	2cc\
.	.	2.b\
.	2r	.
.	.	4a/
.	[2e\	2cc\
=92	=92	=92
1r	2e\]	2b\
.	2d\	2.dd\
2r	1f\	.
.	.	4cc\
[2AA/	.	[2cc\
=93	=93	=93
2AA/]	1e\	4cc\]
.	.	4b\
2E\	.	2b\
2F\	2r	2a/
[2G\	[2e\	2g/
=94	=94	=94
1G\]	2e\]	1b\
.	2d\	.
[1A\	1f\	2a/
.	.	[2cc\
=95	=95	=95
2A\]	1e\	2cc\]
1.E\	.	2b\
.	2r	2.g/
.	[2e\	.
.	.	4a/
=96	=96	=96
1r	2e\]	1b\
.	2d\	.
1E\	2B\	1r
.	2c\	.
=97	=97	=97
2D\	1d\	2r
1F\	.	1a/
.	2r	.
2E\	[2e\	2g/
=98	=98	=98
2C/	2e\]	2e/
2D\	2d\	2f/
1E\	2B\	1g/
.	2c\	.
=99	=99	=99
2D\	1d\	2r
1F\	.	1a/
.	2r	.
2E\	[2e\	2g/
=100	=100	=100
2C/	2e\]	2e/
2D\	2d\	2f/
1E\	2B\	1g/
.	[2c\	.
=101	=101	=101
2.AA/	4c\]	2r
.	4B\	.
.	2A/	2.cc\
4BB/	.	.
2C/	2G/	.
.	.	4b\
2D\	2F/	2a/
=102	=102	=102
2E\	2E/	2g/
2F\	2A/	1a/
2D\	1B\	.
2E\	.	2g#i/
=103	=103	=103
1F\	1A/	1a/
2E\	2r	2g/
2F\	2A/	2cc\
=104	=104	=104
2G\	2G/	2b\
2A\	2c\	2a/
2E\	2B\	2g/
2F\	2A/	2a/
=105	=105	=105
2G\	2G/	2e/
2D\	2A/	2f/
2C/	2E/	2g/
2F\	2A/	2a/
=106	=106	=106
2E\	2c\	2e/
2D\	2d\	1a/
1E\	1B\	.
.	.	2g#i/
=107	=107	=107
0AAl	0Al	0al
==	==	==
*-	*-	*-
!!!RDF**kern: l=long note in original notation
!!!RDF**kern: i=editorial accidental
!!!RDF**kern: V=start of tuplet marker
!!!RDF**kern: Z=end of tuplet marker
!!!ENC:	Chris Gage 05-30-2012
!!!END:	2012/05/30/
!!!EED:	Jesse Rodin
!!!EEV:	2012/06/21/
!!attribution-level@Jos: 5 (doubtful)
!!!ONB:	Translated from MusicXML and edited on 2012/06/21/ by Craig Sapp
!!muse2ps: C^@{COA}?\n@{SCT}^i2I150v85,85,150Q16
